!!!OTL: "Eine kleine Nachtmusik" (Fragment) für Streicher, 2. Satz, KV 525/02
!!!system-decoration: [(s1,s2,s3,s4)]
**kern	**kern	**kern	**kern	**dynam	**kern	**kern	**kern	**kern	**dynam	**kern	**kern	**kern	**kern	**dynam	**kern	**kern	**kern	**kern	**dynam
*part4	*part4	*part4	*part4	*part4	*part3	*part3	*part3	*part3	*part3	*part2	*part2	*part2	*part2	*part2	*part1	*part1	*part1	*part1	*part1
*staff16	*staff15	*staff14	*staff13	*	*staff12	*staff11	*staff10	*staff9	*	*staff8	*staff7	*staff6	*staff5	*	*staff4	*staff3	*staff2	*staff1	*
*I"Violoncello e Basso	*	*	*	*	*I"Viola	*	*	*	*	*I"Violino II	*	*	*	*	*I"Violino I	*	*	*	*
*clefF4	*	*clefC3	*	*clefG2	*	*clefG2	*
*M4/4	*	*M4/4	*	*M4/4	*	*M4/4	*
2r	.	2r	.	8c	.	8ee	.
.	.	.	.	8r	.	8r	.
.	.	.	.	8c	.	8ee	.
.	.	.	.	8r	.	8r	.
=1	=1	=1	=1	=1	=1	=1	=1
4C	.	1r	.	(8cL	.	(4.ee	.
.	.	.	.	8G	.	.	.
4C	.	.	.	8c	.	.	.
.	.	.	.	8eJ)	.	8gg)	.
4C	.	.	.	(8dL	.	(8ffL	.
.	.	.	.	8B	.	8dd	.
4C	.	.	.	8d	.	8ff	.
.	.	.	.	8fJ)	.	8aaJ)	.
=2	=2	=2	=2	=2	=2	=2	=2
4C	.	1r	.	(8.eL	.	(8.ggL	.
.	.	.	.	16cJ)	.	16eeJ)	.
4C	.	.	.	8e	.	8gg	.
.	.	.	.	8r	.	8r	.
4r	.	.	.	8a	.	8ccc	.
.	.	.	.	(4a	.	(4ccc	.
4C	.	.	.	.	.	.	.
.	.	.	.	8g)	.	8bb)	.
=3	=3	=3	=3	=3	=3	=3	=3
4r	.	1r	.	8f	.	8aa	.
.	.	.	.	(4f	.	(4aa	.
(4C	.	.	.	.	.	.	.
.	.	.	.	8e)	.	8gg)	.
4BB	.	.	.	(8eL	.	(8ggL	.
.	.	.	.	16dJ)	.	16ffJ)	.
.	.	.	.	16r	.	16r	.
4C)	.	.	.	(8dL	.	(8ffL	.
.	.	.	.	16cJ)	.	16eeJ)	.
.	.	.	.	16r	.	16r	.
!!LO:LB
=4	=4	=4	=4	=4	=4	=4	=4
4G	.	1r	.	(8.eL	.	(8.ggL	.
.	.	.	.	16cJ)	.	16eeJ)	.
4GG	.	.	.	8B	.	8dd	.
.	.	.	.	8r	.	8r	.
2r	.	.	.	(8cL	.	8ee	.
.	.	.	.	8G	.	8r	.
.	.	.	.	8c	.	8ee	.
.	.	.	.	8GJ)	.	8r	.
=5	=5	=5	=5	=5	=5	=5	=5
4C	.	2g	.	(8cL	.	(4.ee	.
.	.	.	.	8G	.	.	.
4C	.	.	.	8c	.	.	.
.	.	.	.	8eJ)	.	8gg)	.
4C	.	(4.bT	.	(8dL	.	(8ffL	.
.	.	.	.	8B	.	8dd	.
4C	.	.	.	8d	.	8ff	.
.	.	16aL	.	8fJ)	.	8aaJ)	.
.	.	16bJ)	.	.	.	.	.
=6	=6	=6	=6	=6	=6	=6	=6
4C	.	4cc	.	(8.eL	.	(8.ggL	.
.	.	.	.	16cJ)	.	16eeJ)	.
4C	.	4r	.	8e	.	8gg	.
.	.	.	.	8r	.	8r	.
4E	.	4e	.	(8gL	.	(8cccL	.
.	.	.	.	16ccJ)	.	16ggJ)	.
.	.	.	.	16r	.	16r	.
4E	.	4e	.	(8cL	.	(8ggL	.
.	.	.	.	16gJ)	.	16eeJ)	.
.	.	.	.	16r	.	16r	.
=7	=7	=7	=7	=7	=7	=7	=7
4F	.	(4.f	.	(8aL	.	(8ddL	.
.	.	.	.	8ccJ)	.	8aaJ)	.
.	.	.	.	(<16qb	.	.	.
.	.	.	.	.	.	(<16qgg	.
4F	.	.	.	(8aL)	.	(8ffL)	.
.	.	8a)	.	16g	.	16ee	.
.	.	.	.	16fJ)	.	16ddJ)	.
4G	.	(4g	.	4e	.	4cc	.
4GG	.	4B)	.	(16gL	.	(16eeL	.
.	.	.	.	16f	.	16dd	.
.	.	.	.	16e	.	16cc	.
.	.	.	.	16fJ)	.	16ddJ)	.
=8	=8	=8	=8	=8	=8	=8	=8
4C	.	4c	.	4e	.	4cc	.
4r	.	4r	.	4r	.	4r	.
!!LO:LB
=:|!	=:|!	=:|!	=:|!	=:|!	=:|!	=:|!	=:|!
2r	.	2r	.	2r	.	(16cc#L	.
.	.	.	.	.	.	16dd	.
.	.	.	.	.	.	16ff	.
.	.	.	.	.	.	16eeJ)	.
.	.	.	.	.	.	(16dd#L	.
.	.	.	.	.	.	16ee	.
.	.	.	.	.	.	16gg	.
.	.	.	.	.	.	16ffJ)	.
=9	=9	=9	=9	=9	=9	=9	=9
4GG	.	8BL	.	8dL	.	4ff	.
.	.	8B	.	8d	.	.	.
4GG	.	8B	.	8d	.	(8.aaL	.
.	.	8BJ	.	8dJ	.	.	.
.	.	.	.	.	.	16ggJ)	.
4GG	.	8cL	.	8eL	.	4gg	.
.	.	8c	.	8e	.	.	.
4GG	.	8e	.	8g	.	(16ffL	.
.	.	.	.	.	.	16ee	.
.	.	8eJ	.	8gJ	.	16dd	.
.	.	.	.	.	.	16ccJ)	.
=10	=10	=10	=10	=10	=10	=10	=10
4GG	.	4g	.	(4cc	.	(4ee	.
4r	.	4r	.	8b)	.	8dd)	.
.	.	.	.	8r	.	8r	.
2r	.	2r	.	2r	.	(16cc#L	.
.	.	.	.	.	.	16dd	.
.	.	.	.	.	.	16ff	.
.	.	.	.	.	.	16eeJ)	.
.	.	.	.	.	.	(16dd#L	.
.	.	.	.	.	.	16ee	.
.	.	.	.	.	.	16gg	.
.	.	.	.	.	.	16ffJ)	.
=11	=11	=11	=11	=11	=11	=11	=11
4GG	cresc.	8BL	cresc.	8dL	cresc.	4ff	cresc.
.	.	8B	.	8d	.	.	.
4G	.	8d	.	8f	.	(8.bbL	.
.	.	8dJ	.	8fJ	.	.	.
.	.	.	.	.	.	16cccJ)	.
4G	.	8cL	.	8eL	.	4ccc	.
.	.	8c	.	8e	.	.	.
4G	.	8A	.	8c	.	(16bbL	.
.	.	.	.	.	.	16aa	.
.	.	8AJ	.	8cJ	.	16gg	.
.	.	.	.	.	.	16ff#J)	.
!!LO:LB
=12	=12	=12	=12	=12	=12	=12	=12
4GG	.	4D	.	4B	.	(16ggL	.
.	.	.	.	.	.	16aa	.
.	.	.	.	.	.	16gg	.
.	.	.	.	.	.	16ff#J	.
4r	.	4r	.	4r	.	16ggL	.
.	.	.	.	.	.	16gg#	.
.	.	.	.	.	.	16aa	.
.	.	.	.	.	.	16ffnJ	.
2r	.	2r	.	(8cL	.	8ee)	.
.	.	.	.	8G	.	8r	.
.	.	.	.	8c	.	8ee	.
.	.	.	.	8GJ)	.	8r	.
=13	=13	=13	=13	=13	=13	=13	=13
(2AA	.	1r	.	(8c#L	.	(4.ee	.
.	.	.	.	8G	.	.	.
.	.	.	.	8c#y	.	.	.
.	.	.	.	8eJ)	.	8gg)	.
4D	.	.	.	(8dL	.	(8ffL	.
.	.	.	.	8A	.	8dd	.
4BB)	.	.	.	8d	.	8ff	.
.	.	.	.	8fJ)	.	8aaJ)	.
=14	=14	=14	=14	=14	=14	=14	=14
4C	.	2r	.	(8.eL	.	(8.ggL	.
.	.	.	.	16cnJ)	.	16eeJ)	.
4r	.	.	.	8e	.	8gg	.
.	.	.	.	8r	.	8r	.
4E	.	[2g [2G	.	(8ccL	.	(8ggL	.
.	.	.	.	16eJ)	.	16cccJ)	.
.	.	.	.	16r	.	16r	.
4D	.	.	.	(8fL	.	(8bbL	.
.	.	.	.	16bJ)	.	16ffJ)	.
.	.	.	.	16r	.	16r	.
=15	=15	=15	=15	=15	=15	=15	=15
4C	.	4g] 4G]	.	(8ccL	.	(8eeL	.
.	.	.	.	16eJ)	.	16ggJ)	.
.	.	.	.	16r	.	16r	.
4F	.	(4a	.	(8ccL	.	(8ffL	.
.	.	.	.	16dJ)	.	16aaJ)	.
.	.	.	.	16r	.	16r	.
4G	.	4g	.	4e	.	4cc	.
4GG	.	4B)	.	(16gL	.	(16eeL	.
.	.	.	.	16f	.	16dd	.
.	.	.	.	16e	.	16cc	.
.	.	.	.	16fJ)	.	16ddJ)	.
=16	=16	=16	=16	=16	=16	=16	=16
4C	.	4c	.	4e	.	4cc	.
4r	.	4r	.	4r	.	4r	.
=:|!	=:|!	=:|!	=:|!	=:|!	=:|!	=:|!	=:|!
8c'L	.	8g'L	.	8c'L	.	8ee'L	.
8c'	.	8g'	.	8c'	.	8ee'	.
8c'	.	8g'	.	8c'	.	8ee'	.
8c'J	.	8g'J	.	8c'J	.	8ee'J	.
=17	=17	=17	=17	=17	=17	=17	=17
4G	.	4g	.	(4c#	.	(8eeL	.
.	.	.	.	.	.	16gg	.
.	.	.	.	.	.	16ffJ	.
4r	.	4r	.	8d)	.	16eeL	.
.	.	.	.	.	.	16dd	.
.	.	.	.	8r	.	16cc	.
.	.	.	.	.	.	16bJ)	.
8CL	.	8gL	.	8e'L	.	8cc'L	.
8C	.	8g	.	8e'	.	8cc'	.
8C	.	8g	.	8e'	.	8cc'	.
8CJ	.	8gJ	.	8e'J	.	8cc'J	.
=18	=18	=18	=18	=18	=18	=18	=18
4GG	.	4g	.	(8eL	.	(4cc#	.
.	.	.	.	16g	.	.	.
.	.	.	.	16fJ	.	.	.
4r	.	4r	.	16eL	.	8dd)	.
.	.	.	.	16d	.	.	.
.	.	.	.	16cn	.	8r	.
.	.	.	.	16BJ	.	.	.
8cL	.	8gL	.	8cL)	.	8ee'L	.
8c	.	8g	.	8cc	.	8ee'	.
8A	.	8d	.	8cc	.	8ff#'	.
8AJ	.	8dJ	.	8ccJ	.	8ff#y'J	.
=19	=19	=19	=19	=19	=19	=19	=19
4G	.	4d	.	4b	.	(16ggL	.
.	.	.	.	.	.	16bb	.
.	.	.	.	.	.	16aa	.
.	.	.	.	.	.	16ggJ	.
8r	.	8r	.	8r	.	16ff#L	.
.	.	.	.	.	.	16ee	.
8E	.	8G	.	8B-	.	16dd	.
.	.	.	.	.	.	16cc#J)	.
4D	.	4G	.	4Bn	.	(16ddL	.
.	.	.	.	.	.	16ee	.
.	.	.	.	.	.	16dd	.
.	.	.	.	.	.	16ccnJ	.
8r	.	8r	.	8r	.	16bL	.
.	.	.	.	.	.	16a	.
8D	.	8A	.	8c	.	16g	.
.	.	.	.	.	.	16f#J)	.
=20	=20	=20	=20	=20	=20	=20	=20
[4GG	.	(4F#	.	(4c	.	(4a	.
8GG]	.	8G)	.	8B)	.	8g)	.
8r	.	8r	.	8r	.	8r	.
!!LO:LB
=:|!	=:|!	=:|!	=:|!	=:|!	=:|!	=:|!	=:|!
8E'L	.	8b'L	.	8e'L	.	8gg'L	.
8E'	.	8b'	.	8e'	.	8gg'	.
8G'	.	8b-'	.	8e'	.	8gg'	.
8G'J	.	8b-y'J	.	8d'J	.	8gg'J	.
=21	=21	=21	=21	=21	=21	=21	=21
4A	.	4a	.	4c#	.	(16ggL	.
.	.	.	.	.	.	16bb-	.
.	.	.	.	.	.	16aa	.
.	.	.	.	.	.	16ggJ	.
4r	.	4r	.	4r	.	16ffnL	.
.	.	.	.	.	.	16ee	.
.	.	.	.	.	.	16dd	.
.	.	.	.	.	.	16cc#J)	.
8D'L	.	8a'L	.	8d'L	.	8ff'L	.
8D'	.	8a'	.	8d'	.	8ff'	.
8F'	.	8a-'	.	8d'	.	8ff'	.
8F'J	.	8a-y'J	.	8cn'J	.	8ff'J	.
=22	=22	=22	=22	=22	=22	=22	=22
4G	.	4g	.	4B	.	(16ffL	.
.	.	.	.	.	.	16aa	.
.	.	.	.	.	.	16gg	.
.	.	.	.	.	.	16ffJ	.
4r	.	4r	.	4r	.	16eeL	.
.	.	.	.	.	.	16dd	.
.	.	.	.	.	.	16cc	.
.	.	.	.	.	.	16bJ)	.
8c'L	.	8cL	.	8gL	.	8eeL	.
8c'	.	8c	.	8g	.	8ee	.
8A'	.	8e	.	8cc	.	8ee	.
8A'J	.	8eJ	.	8ccJ	.	8eeJ	.
=23	=23	=23	=23	=23	=23	=23	=23
4G#	.	4e	.	4b	.	(16eeL	.
.	.	.	.	.	.	16ff	.
.	.	.	.	.	.	16ee	.
.	.	.	.	.	.	16dd#J	.
8r	.	8r	.	8r	.	16eeL	.
.	.	.	.	.	.	16ddn	.
(8E	.	(8d	.	(8g#	.	16cc	.
.	.	.	.	.	.	16bJ)	.
4F)	.	4c)	.	4a)	.	(16aL	.
.	.	.	.	.	.	16b	.
.	.	.	.	.	.	16a	.
.	.	.	.	.	.	16g#J	.
8r	.	8r	.	8r	.	16aL	.
.	.	.	.	.	.	16cc	.
(8F	.	(8A	.	(8d#	.	16b	.
.	.	.	.	.	.	16aJ)	.
!!LO:LB
=24	=24	=24	=24	=24	=24	=24	=24
4E)	.	4B)	.	4e)	.	(8g#L	.
.	.	.	.	.	.	8bJ)	.
8r	.	8r	.	8r	.	4.ee	.
(8G#	.	(8b	.	(8dd	.	.	.
8AL)	.	8aL)	.	8cc#L)	.	.	.
8A'	.	8a'	.	8cc#y'	.	8ee'L	.
8A'	.	8a'	.	8ccn'	.	8ee'	.
8A'J	.	8a'J	.	8cc'J	.	8ee'J	.
=25	=25	=25	=25	=25	=25	=25	=25
4G#	.	4e	.	4b	.	(16eeL	.
.	.	.	.	.	.	16ff	.
.	.	.	.	.	.	16ee	.
.	.	.	.	.	.	16dd#J	.
8r	.	8r	.	8r	.	16eeL	.
.	.	.	.	.	.	16ff#	.
(8E	.	(8b	.	(8dd	.	16gg#	.
.	.	.	.	.	.	16eeJ)	.
4F)	.	4a)	.	4cc)	.	(16aaL	.
.	.	.	.	.	.	16bb	.
.	.	.	.	.	.	16aa	.
.	.	.	.	.	.	16gg#yJ	.
8r	.	8r	.	8r	.	16aaL	.
.	.	.	.	.	.	16ccc	.
(8F	.	(8a	.	(8dd#	.	16bb	.
.	.	.	.	.	.	16aaJ)	.
=26	=26	=26	=26	=26	=26	=26	=26
4E)	.	4b)	.	4ee)	.	(8gg#L	.
.	.	.	.	.	.	8bbJ)	.
8r	.	8r	.	8r	.	8ee	.
(8F	.	(8d#	.	8a	.	8r	.
4E)	.	4e)	.	(8g#L	.	4r	.
.	.	.	.	8b)	.	.	.
4r	.	4r	.	8e'	.	8r	.
.	.	.	.	8a'J	.	8aa	.
=27	=27	=27	=27	=27	=27	=27	=27
2r	.	4r	.	(8g#L	.	(8gg#L	.
.	.	.	.	8b)	.	8bbJ)	.
.	.	8r	.	8e'	.	8ee	.
.	.	8A	.	8a'J	.	8r	.
4r	.	(8G#L	.	(8g#yL	.	2r	.
.	.	8B)	.	8bJ)	.	.	.
8r	.	8E'	.	8e	.	.	.
8AA	.	8A'J	.	8r	.	.	.
!!LO:LB
=28	=28	=28	=28	=28	=28	=28	=28
(8GG#L	.	(8G#L	.	2r	.	4r	.
8BBJ)	.	8BJ)	.	.	.	.	.
8EE	.	8E	.	.	.	8r	.
8r	.	8r	.	.	.	8aa	.
2r	.	2r	.	4r	.	(8gg#L	.
.	.	.	.	.	.	8bb)	.
.	.	.	.	8r	.	8ee'	.
.	.	.	.	8dd	.	8ff#'J	.
=29	=29	=29	=29	=29	=29	=29	=29
2r	.	1r	.	(8cc#L	.	2ggn	.
.	.	.	.	8ee)	.	.	.
.	.	.	.	8a'	.	.	.
.	.	.	.	8b'J	.	.	.
4r	.	.	.	(4.ccn	.	(8ff#L	.
.	.	.	.	.	.	8aa)	.
8r	.	.	.	.	.	8dd'	.
8C	.	.	.	16bL	.	8ee'J	.
.	.	.	.	16aJ)	.	.	.
=30	=30	=30	=30	=30	=30	=30	=30
(8BBL	.	8r	.	8g	.	(2ffn	.
8D)	.	(8GnL	.	(4B	.	.	.
8GGn'	.	8g)	.	.	.	.	.
8BB'J	.	8g'J	.	8d)	.	.	.
4C	.	4g	.	8c	.	8ee)	.
.	.	.	.	8r	.	8r	.
4r	.	4r	.	8c	.	8ee	.
.	.	.	.	8r	.	8r	.
=31	=31	=31	=31	=31	=31	=31	=31
4C	.	1r	.	(8cL	.	(4.ee	.
.	.	.	.	8G	.	.	.
4C	.	.	.	8c	.	.	.
.	.	.	.	8eJ)	.	8gg)	.
4C	.	.	.	(8dL	.	(8ffL	.
.	.	.	.	8B	.	8dd	.
4C	.	.	.	8d	.	8ff	.
.	.	.	.	8fJ)	.	8aaJ)	.
=32	=32	=32	=32	=32	=32	=32	=32
4C	.	1r	.	(8.eL	.	(8.ggL	.
.	.	.	.	16cJ)	.	16eeJ)	.
4C	.	.	.	8e	.	8gg	.
.	.	.	.	8r	.	8r	.
4r	.	.	.	8a	.	8ccc	.
.	.	.	.	(4a	.	(4ccc	.
4C	.	.	.	.	.	.	.
.	.	.	.	8g)	.	8bb)	.
=33	=33	=33	=33	=33	=33	=33	=33
4r	.	1r	.	8f	.	8aa	.
.	.	.	.	(4f	.	(4aa	.
(4C	.	.	.	.	.	.	.
.	.	.	.	8e)	.	8gg)	.
4BB	.	.	.	(8eL	.	(8ggL	.
.	.	.	.	16dJ)	.	16ffJ)	.
.	.	.	.	16r	.	16r	.
4C)	.	.	.	(8dL	.	(8ffL	.
.	.	.	.	16cJ)	.	16eeJ)	.
.	.	.	.	16r	.	16r	.
=34	=34	=34	=34	=34	=34	=34	=34
4G	.	1r	.	(8.eL	.	(8.ggL	.
.	.	.	.	16cJ)	.	16eeJ)	.
4GG	.	.	.	8B	.	8dd	.
.	.	.	.	8r	.	8r	.
2r	.	.	.	(8cL	.	8ee	.
.	.	.	.	8G	.	8r	.
.	.	.	.	8c	.	8ee	.
.	.	.	.	8GJ)	.	8r	.
=35	=35	=35	=35	=35	=35	=35	=35
4C	.	2g	.	(8cL	.	(4.ee	.
.	.	.	.	8G	.	.	.
4C	.	.	.	8c	.	.	.
.	.	.	.	8eJ)	.	8gg)	.
4C	.	(4.bT	.	(8dL	.	(8ffL	.
.	.	.	.	8B	.	8dd	.
4C	.	.	.	8d	.	8ff	.
.	.	16aL	.	8fJ)	.	8aaJ)	.
.	.	16bJ)	.	.	.	.	.
=36	=36	=36	=36	=36	=36	=36	=36
4C	.	4cc	.	(8.eL	.	(8.ggL	.
.	.	.	.	16cJ)	.	16eeJ)	.
4C	.	4r	.	8e	.	8gg	.
.	.	.	.	8r	.	8r	.
4E	.	4e	.	(8gL	.	(8cccL	.
.	.	.	.	16ccJ)	.	16ggJ)	.
.	.	.	.	16r	.	16r	.
4E	.	4e	.	(8cL	.	(8ggL	.
.	.	.	.	16gJ)	.	16eeJ)	.
.	.	.	.	16r	.	16r	.
!!LO:LB
=37	=37	=37	=37	=37	=37	=37	=37
4F	.	(4.f	.	(8aL	.	(8ddL	.
.	.	.	.	8ccJ)	.	8aaJ)	.
.	.	.	.	(<16qb	.	.	.
.	.	.	.	.	.	(<16qgg	.
4F	.	.	.	(8aL)	.	(8ffL)	.
.	.	8a)	.	16g	.	16ee	.
.	.	.	.	16fJ)	.	16ddJ)	.
4G	.	(4g	.	4e	.	4cc	.
4GG	.	4B)	.	(16gL	.	(16eeL	.
.	.	.	.	16f	.	16dd	.
.	.	.	.	16e	.	16cc	.
.	.	.	.	16fJ)	.	16ddJ)	.
=38	=38	=38	=38	=38	=38	=38	=38
4C	.	4c	.	4e	.	4cc	.
4r	.	4r	.	4r	.	4r	.
=	=	=	=	=	=	=	=
2r	.	16cL	.	16eL	.	4r	.
.	.	16c	.	16e	.	.	.
.	.	16Bn	.	16d	.	.	.
.	.	16BJ	.	16dJ	.	.	.
.	.	16cL	.	16eL	.	8ggL	.
.	.	16c	.	16e	.	.	.
.	.	16d	.	16f	.	(8bnJ	.
.	.	16dJ	.	16fJ	.	.	.
=39	=39	=39	=39	=39	=39	=39	=39
4r	.	16eL	.	16gL	.	8cc)	.
.	.	16e	.	16g	.	.	.
.	.	16f	.	16a	.	8r	.
.	.	16fJ	.	16aJ	.	.	.
8GL	.	16eL	.	16gL	.	4r	.
.	.	16e	.	16g	.	.	.
(8BBnJ	.	16d	.	16f	.	.	.
.	.	16dJ	.	16fJ	.	.	.
8C)	.	16cL	.	16eL	.	4r	.
.	.	16c	.	16e	.	.	.
8r	.	16Bn	.	16d	.	.	.
.	.	16BJ	.	16dJ	.	.	.
4r	.	16cL	.	16eL	.	8ggL	.
.	.	16c	.	16e	.	.	.
.	.	16d	.	16f	.	(8bnJ	.
.	.	16dJ	.	16fJ	.	.	.
!!LO:LB
=40	=40	=40	=40	=40	=40	=40	=40
4r	.	16e-yL	.	16gL	.	8cc)	.
.	.	16e-y	.	16g	.	.	.
.	.	16f	.	16a-y	.	8r	.
.	.	16fJ	.	16a-yJ	.	.	.
8GL	.	16e-yL	.	16gL	.	4r	.
.	.	16e-y	.	16g	.	.	.
(8BBnJ	.	16d	.	16f	.	.	.
.	.	16dJ	.	16fJ	.	.	.
8C)	.	16cL	.	16e-yL	.	4r	.
.	.	16c	.	16e-y	.	.	.
8r	.	16Bn	.	16d	.	.	.
.	.	16BJ	.	16dJ	.	.	.
4r	.	16cL	.	16e-yL	.	8ggL	.
.	.	16c	.	16e-y	.	.	.
.	.	16e-y	.	16g	.	(8ccJ	.
.	.	16e-yJ	.	16gJ	.	.	.
=41	=41	=41	=41	=41	=41	=41	=41
(4.BB-	.	16dL	.	16fL	.	4.aa-y)	.
.	.	16d	.	16f	.	.	.
.	.	16d	.	16f	.	.	.
.	.	16dJ	.	16fJ	.	.	.
.	.	16dL	.	16fL	.	.	.
.	.	16d	.	16f	.	.	.
8C)	.	16e-y	.	16e-y	.	(8gg	.
.	.	16e-yJ	.	16e-yJ	.	.	.
8AA-yL	.	16cL	.	16a-yL	.	8ffL)	.
.	.	16c	.	16a-y	.	.	.
8AA-y	.	16c	.	16a-y	.	8ff'	.
.	.	16cJ	.	16a-yJ	.	.	.
8BB-y	.	16fL	.	16a-yL	.	8dd'	.
.	.	16f	.	16a-y	.	.	.
8BB-yJ	.	16f	.	16a-y	.	8dd'J	.
.	.	16fJ	.	16a-yJ	.	.	.
=42	=42	=42	=42	=42	=42	=42	=42
8EE-y	.	16e-yL	.	16gL	.	8ee-y	.
.	.	16e-y	.	16g	.	.	.
8r	.	16f	.	16a-y	.	8r	.
.	.	16fJ	.	16a-yJ	.	.	.
4r	.	16e-yL	.	16gL	.	4r	.
.	.	16e-y	.	16g	.	.	.
.	.	16d	.	16f	.	.	.
.	.	16dJ	.	16fJ	.	.	.
!!LO:LB
=:|!	=:|!	=:|!	=:|!	=:|!	=:|!	=:|!	=:|!
2r	.	16e-yL	.	16gL	.	4r	.
.	.	16e-y	.	16g	.	.	.
.	.	16d	.	16f	.	.	.
.	.	16dJ	.	16fJ	.	.	.
.	.	16e-yL	.	16gL	.	8bb-yL	.
.	.	16e-y	.	16g	.	.	.
.	.	16f	.	16a-y	.	(8ddJ	.
.	.	16fJ	.	16a-yJ	.	.	.
=43	=43	=43	=43	=43	=43	=43	=43
4r	.	16gL	.	16b-yL	.	8ee-y)	.
.	.	16g	.	16b-y	.	.	.
.	.	16b-y	.	16dd-	.	8r	.
.	.	16b-yJ	.	16dd-yJ	.	.	.
8cL	.	16a-yL	.	16ccL	.	4r	.
.	.	16a-y	.	16cc	.	.	.
(8EnJ	.	16g	.	16b-y	.	.	.
.	.	16gJ	.	16b-yJ	.	.	.
8F)	.	16fL	.	16a-yL	.	4r	.
.	.	16f	.	16a-y	.	.	.
8r	.	16en	.	16g	.	.	.
.	.	16eJ	.	16gJ	.	.	.
4r	.	16fL	.	16a-yL	.	8cccL	.
.	.	16f	.	16a-y	.	.	.
.	.	16g	.	16b-y	.	(8eenJ	.
.	.	16gJ	.	16b-yJ	.	.	.
=44	=44	=44	=44	=44	=44	=44	=44
4r	.	16a-yL	.	16ccL	.	8ff)	.
.	.	16a-y	.	16cc	.	.	.
.	.	16cc	.	16ee-y	.	8r	.
.	.	16ccJ	.	16ee-yJ	.	.	.
8dL	.	16b-yL	.	16ddL	.	4r	.
.	.	16b-y	.	16dd	.	.	.
(8F#J	.	16an	.	16cc	.	.	.
.	.	16aJ	.	16ccJ	.	.	.
8G)	.	16gL	.	16bnL	.	4r	.
.	.	16g	.	16b	.	.	.
8r	.	16f#	.	16an	.	.	.
.	.	16f#yJ	.	16aJ	.	.	.
4r	.	16gL	.	16bL	.	8dddL	.
.	.	16g	.	16b	.	.	.
.	.	16a	.	16cc	.	(8ff#J	.
.	.	16aJ	.	16ccJ	.	.	.
=45	=45	=45	=45	=45	=45	=45	=45
2r	.	16bnL	.	16ddL	.	8ggL)	.
.	.	16b	.	16dd	.	.	.
.	.	16cc	.	16ee-y	.	(8aa-y	.
.	.	16ccJ	.	16ee-yJ	.	.	.
.	.	16bL	.	16ddL	.	8gg)	.
.	.	16b	.	16dd	.	.	.
.	.	16Bn	.	16a-	.	(8ffnJ	.
.	.	16BJ	.	16a-yJ	.	.	.
4r	.	16cL	.	16gL	.	8ee-yL)	.
.	.	16c	.	16g	.	.	.
.	.	16d	.	16f	.	(8bn	.
.	.	16dJ	.	16fJ	.	.	.
8cL	.	16e-yL	.	16gL	.	8cc)	.
.	.	16e-y	.	16g	.	.	.
(8F#J	.	16an	.	16cc	.	(8ee-yJ	.
.	.	16aJ	.	16ccJ	.	.	.
=46	=46	=46	=46	=46	=46	=46	=46
8GL)	.	16dL	.	16bnL	.	8dd)	.
.	.	16d	.	16b	.	.	.
(8A-y	.	16c	.	16f#	.	8r	.
.	.	16cJ	.	16f#yJ	.	.	.
8G)	.	16BnL	.	16gL	.	4r	.
.	.	16B	.	16g	.	.	.
(8FnJ	.	16B	.	16a-y	.	.	.
.	.	16BJ	.	16a-yJ	.	.	.
8E-yL)	.	16cL	.	16gL	.	2r	.
.	.	16c	.	16g	.	.	.
8BBn	.	16A-	.	16d	.	.	.
.	.	16A-yJ	.	16dJ	.	.	.
8C	.	16GL	.	16e-yL	.	.	.
.	.	16G	.	16e-y	.	.	.
(8AA-yJ	.	16F#	.	16c	.	.	.
.	.	16F#yJ	.	16cJ	.	.	.
=47	=47	=47	=47	=47	=47	=47	=47
8GG)	.	16GL	.	16BnL	.	4r	.
.	.	16G	.	16B	.	.	.
8r	.	16Fn	.	16B	.	.	.
.	.	16FJ	.	16BJ	.	.	.
4r	.	16EnL	.	16cL	.	8cccL	.
.	.	16E	.	16c	.	.	.
.	.	16E-	.	16c	.	(8ff#J	.
.	.	16E-yJ	.	16cJ	.	.	.
8GL	.	16DL	.	16BL	.	8gg)	.
.	.	16D	.	16B	.	.	.
(8BBnJ	.	16d	.	16f	.	8r	.
.	.	16dJ	.	16fJ	.	.	.
8C)	.	16cL	.	16enL	.	8cccL	.
.	.	16c	.	16e	.	.	.
8r	.	16c	.	16e-	.	(8ff#yJ	.
.	.	16cJ	.	16e-yJ	.	.	.
!!LO:LB
=48	=48	=48	=48	=48	=48	=48	=48
8GL	.	16BnL	.	16dL	.	8gg)	.
.	.	16B	.	16d	.	.	.
(8BBnJ	.	16d	.	16f	.	8r	.
.	.	16dJ	.	16fJ	.	.	.
8C)	.	16cL	.	16enL	.	8cccL	.
.	.	16c	.	16e	.	.	.
8r	.	16c	.	16e-	.	(8ff#J	.
.	.	16cJ	.	16e-yJ	.	.	.
8GL	.	16BL	.	16dL	.	8gg)	.
.	.	16B	.	16d	.	.	.
(8BBJ	.	16F	.	16A-y	.	8r	.
.	.	16FJ	.	16A-yJ	.	.	.
8C)	.	16E-L	.	16GL	.	8cccL	.
.	.	16E-y	.	16G	.	.	.
8r	.	16A-y	.	16c	.	(8ff#yJ	.
.	.	16A-yJ	.	16cJ	.	.	.
=49	=49	=49	=49	=49	=49	=49	=49
1r	.	16GL	.	16BnL	.	8gg)	.
.	.	16G	.	16B	.	.	.
.	.	16F#	.	16A#	.	8r	.
.	.	16F#yJ	.	16A#yJ	.	.	.
.	.	16GL	.	16BL	.	4r	.
.	.	16G	.	16B	.	.	.
.	.	16Bn	.	16d	.	.	.
.	.	16BJ	.	16dJ	.	.	.
.	.	16AnL	.	16cL	.	8ff#	.
.	.	16A	.	16c	.	.	.
.	.	16G#	.	16B	.	8r	.
.	.	16G#yJ	.	16BJ	.	.	.
.	.	16AL	.	16cL	.	4r	.
.	.	16A	.	16c	.	.	.
.	.	16c	.	16e-y	.	.	.
.	.	16cJ	.	16e-yJ	.	.	.
=50	=50	=50	=50	=50	=50	=50	=50
(4.GG	.	16BnL	.	16dL	.	8ffn	.
.	.	16B	.	16d	.	.	.
.	.	16A#	.	16c#	.	8r	.
.	.	16A#yJ	.	16c#yJ	.	.	.
.	.	16BL	.	16dL	.	4r	.
.	.	16B	.	16d	.	.	.
16AAnL	.	16d	.	16f	.	.	.
16BBnJ	.	16dJ	.	16fJ	.	.	.
!!LO:LB
=	=	=	=	=	=	=	=
8C)	.	8c	.	(8eL	.	8ee	.
8r	.	8r	.	8G)	.	8r	.
4r	.	4r	.	(8c	.	8ee	.
.	.	.	.	8GJ)	.	8r	.
=51	=51	=51	=51	=51	=51	=51	=51
4C	.	1r	.	(8cL	.	(4.ee	.
.	.	.	.	8G	.	.	.
4C	.	.	.	8c	.	.	.
.	.	.	.	8eJ)	.	8gg)	.
4C	.	.	.	(8dL	.	(8ffL	.
.	.	.	.	8B	.	8dd	.
4C	.	.	.	8d	.	8ff	.
.	.	.	.	8fJ)	.	8aaJ)	.
=52	=52	=52	=52	=52	=52	=52	=52
4C	.	1r	.	(8.eL	.	(8.ggL	.
.	.	.	.	16cJ)	.	16eeJ)	.
4C	.	.	.	8e	.	8gg	.
.	.	.	.	8r	.	8r	.
4r	.	.	.	8a	.	8ccc	.
.	.	.	.	(4a	.	(4ccc	.
4C	.	.	.	.	.	.	.
.	.	.	.	8g)	.	8bb)	.
=53	=53	=53	=53	=53	=53	=53	=53
4r	.	1r	.	8f	.	8aa	.
.	.	.	.	(4f	.	(4aa	.
(4C	.	.	.	.	.	.	.
.	.	.	.	8e)	.	8gg)	.
4BB	.	.	.	(8eL	.	(8ggL	.
.	.	.	.	16dJ)	.	16ffJ)	.
.	.	.	.	16r	.	16r	.
4C)	.	.	.	(8dL	.	(8ffL	.
.	.	.	.	16cJ)	.	16eeJ)	.
.	.	.	.	16r	.	16r	.
=54	=54	=54	=54	=54	=54	=54	=54
4G	.	1r	.	(8.eL	.	(8.ggL	.
.	.	.	.	16cJ)	.	16eeJ)	.
4GG	.	.	.	8B	.	8dd	.
.	.	.	.	8r	.	8r	.
2r	.	.	.	(8cL	.	8ee	.
.	.	.	.	8G	.	8r	.
.	.	.	.	8c	.	8ee	.
.	.	.	.	8GJ)	.	8r	.
!!LO:LB
=55	=55	=55	=55	=55	=55	=55	=55
4C	.	2g	.	(8cL	.	(4.ee	.
.	.	.	.	8G	.	.	.
4C	.	.	.	8c	.	.	.
.	.	.	.	8eJ)	.	8gg)	.
4C	.	(4.bT	.	(8dL	.	(8ffL	.
.	.	.	.	8B	.	8dd	.
4C	.	.	.	8d	.	8ff	.
.	.	16aL	.	8fJ)	.	8aaJ)	.
.	.	16bJ)	.	.	.	.	.
=56	=56	=56	=56	=56	=56	=56	=56
4C	.	4cc	.	(8.eL	.	(8.ggL	.
.	.	.	.	16cJ)	.	16eeJ)	.
4C	.	4r	.	8e	.	8gg	.
.	.	.	.	8r	.	8r	.
4E	.	4e	.	(8gL	.	(8cccL	.
.	.	.	.	16ccJ)	.	16ggJ)	.
.	.	.	.	16r	.	16r	.
4E	.	4e	.	(8cL	.	(8ggL	.
.	.	.	.	16gJ)	.	16eeJ)	.
.	.	.	.	16r	.	16r	.
=57	=57	=57	=57	=57	=57	=57	=57
4F	.	(4.f	.	(8aL	.	(8ddL	.
.	.	.	.	8ccJ)	.	8aaJ)	.
.	.	.	.	(<16qb	.	.	.
.	.	.	.	.	.	(<16qgg	.
4F	.	.	.	(8aL)	.	(8ffL)	.
.	.	8a)	.	16g	.	16ee	.
.	.	.	.	16fJ)	.	16ddJ)	.
4G	.	(4g	.	4e	.	4cc	.
4GG	.	4B)	.	(16gL	.	(16eeL	.
.	.	.	.	16f	.	16dd	.
.	.	.	.	16e	.	16cc	.
.	.	.	.	16fJ)	.	16ddJ)	.
=58	=58	=58	=58	=58	=58	=58	=58
4C	.	4c	.	4e	.	4cc	.
4r	.	4r	.	4r	.	4r	.
2r	.	2r	.	2r	.	(16cc#L	.
.	.	.	.	.	.	16dd	.
.	.	.	.	.	.	16ff	.
.	.	.	.	.	.	16eeJ)	.
.	.	.	.	.	.	(16dd#L	.
.	.	.	.	.	.	16ee	.
.	.	.	.	.	.	16gg	.
.	.	.	.	.	.	16ffJ)	.
=59	=59	=59	=59	=59	=59	=59	=59
4GG	.	8BL	.	8dL	.	4ff	.
.	.	8B	.	8d	.	.	.
4GG	.	8B	.	8d	.	(8.aaL	.
.	.	8BJ	.	8dJ	.	.	.
.	.	.	.	.	.	16ggJ)	.
4GG	.	8cL	.	8eL	.	4gg	.
.	.	8c	.	8e	.	.	.
4GG	.	8e	.	8g	.	(16ffL	.
.	.	.	.	.	.	16ee	.
.	.	8eJ	.	8gJ	.	16dd	.
.	.	.	.	.	.	16ccJ)	.
=60	=60	=60	=60	=60	=60	=60	=60
4GG	.	4g	.	(4cc	.	(4ee	.
4r	.	4r	.	8b)	.	8dd)	.
.	.	.	.	8r	.	8r	.
2r	.	2r	.	2r	.	(16cc#L	.
.	.	.	.	.	.	16dd	.
.	.	.	.	.	.	16ff	.
.	.	.	.	.	.	16eeJ)	.
.	.	.	.	.	.	(16dd#L	.
.	.	.	.	.	.	16ee	.
.	.	.	.	.	.	16gg	.
.	.	.	.	.	.	16ffJ)	.
=61	=61	=61	=61	=61	=61	=61	=61
4GG	cresc.	8BL	cresc.	8dL	cresc.	4ff	cresc.
.	.	8B	.	8d	.	.	.
4G	.	8d	.	8f	.	(8.bbL	.
.	.	8dJ	.	8fJ	.	.	.
.	.	.	.	.	.	16cccJ)	.
4G	.	8cL	.	8eL	.	4ccc	.
.	.	8c	.	8e	.	.	.
4G	.	8A	.	8c	.	(16bbL	.
.	.	.	.	.	.	16aa	.
.	.	8AJ	.	8cJ	.	16gg	.
.	.	.	.	.	.	16ff#J)	.
=62	=62	=62	=62	=62	=62	=62	=62
4GG	.	4D	.	4B	.	(16ggL	.
.	.	.	.	.	.	16aa	.
.	.	.	.	.	.	16gg	.
.	.	.	.	.	.	16ff#J	.
4r	.	4r	.	4r	.	16ggL	.
.	.	.	.	.	.	16gg#	.
.	.	.	.	.	.	16aa	.
.	.	.	.	.	.	16ffnJ	.
2r	.	2r	.	(8cL	.	8ee)	.
.	.	.	.	8G	.	8r	.
.	.	.	.	8c	.	8ee	.
.	.	.	.	8GJ)	.	8r	.
!!LO:LB
=63	=63	=63	=63	=63	=63	=63	=63
(2AA	.	1r	.	(8c#L	.	(4.ee	.
.	.	.	.	8G	.	.	.
.	.	.	.	8c#y	.	.	.
.	.	.	.	8eJ)	.	8gg)	.
4D	.	.	.	(8dL	.	(8ffL	.
.	.	.	.	8A	.	8dd	.
4BB)	.	.	.	8d	.	8ff	.
.	.	.	.	8fJ)	.	8aaJ)	.
=64	=64	=64	=64	=64	=64	=64	=64
4C	.	2r	.	(8.eL	.	(8.ggL	.
.	.	.	.	16cnJ)	.	16eeJ)	.
4r	.	.	.	8e	.	8gg	.
.	.	.	.	8r	.	8r	.
4E	.	[2g [2G	.	(8ccL	.	(8ggL	.
.	.	.	.	16eJ)	.	16cccJ)	.
.	.	.	.	16r	.	16r	.
4D	.	.	.	(8fL	.	(8bbL	.
.	.	.	.	16bJ)	.	16ffJ)	.
.	.	.	.	16r	.	16r	.
=65	=65	=65	=65	=65	=65	=65	=65
4C	.	4g] 4G]	.	(8ccL	.	(8eeL	.
.	.	.	.	16eJ)	.	16ggJ)	.
.	.	.	.	16r	.	16r	.
4F	.	(4a	.	(8ccL	.	(8ffL	.
.	.	.	.	16dJ)	.	16aaJ)	.
.	.	.	.	16r	.	16r	.
4G	.	4g	.	4e	.	4cc	.
4GG	.	4B)	.	(16gL	.	(16eeL	.
.	.	.	.	16f	.	16dd	.
.	.	.	.	16e	.	16cc	.
.	.	.	.	16fJ)	.	16ddJ)	.
=66	=66	=66	=66	=66	=66	=66	=66
4C	.	4c	.	4e	.	4cc	.
4r	.	4r	.	4r	.	4r	.
=	=	=	=	=	=	=	=
!	!	!	!	!	!	!LO:TX:a:t=Coda	!
4EE	.	4e	.	4gg 4cc 4e	.	4bb- 4cc 4e	.
4r	.	4r	.	4r	.	4r	.
=67	=67	=67	=67	=67	=67	=67	=67
4FF	.	4f	.	4ff 4cc 4f	.	4aa 4cc 4f	.
4r	.	4r	.	4r	.	4r	.
4FF#	.	4f#	.	4aa 4a 4d	.	4ccc 4dd 4d	.
4r	.	4r	.	4r	.	4r	.
!!LO:LB
=68	=68	=68	=68	=68	=68	=68	=68
(1GG	.	(2g	.	(4.e	.	(4.cc	.
.	.	.	.	32fL	.	32ddL	.
.	.	.	.	32e	.	32cc	.
.	.	.	.	32d	.	32b	.
.	.	.	.	32eJ)	.	32ccJ)	.
.	.	2B)	.	(4g	.	(4ee	.
.	.	.	.	8.fL)	.	8.ddL)	.
.	.	.	.	16eJ	.	16ccJ	.
=69	=69	=69	=69	=69	=69	=69	=69
4C)	.	4c	.	(8eL	.	4cc	.
.	.	.	.	8G	.	.	.
4r	.	4r	.	8c	.	4r	.
.	.	.	.	8GJ	.	.	.
2r	.	2r	.	8cL	.	8ee	.
.	.	.	.	8G	.	8r	.
.	.	.	.	8c	.	8ee	.
.	.	.	.	8GJ)	.	8r	.
=70	=70	=70	=70	=70	=70	=70	=70
(1GG	.	[1g	.	(8cL	.	(4.ee	.
.	.	.	.	8G	.	.	.
.	.	.	.	8c	.	.	.
.	.	.	.	8eJ)	.	8gg)	.
.	.	.	.	(8dL	.	(8ffL	.
.	.	.	.	8B	.	8dd	.
.	.	.	.	8d	.	8ff	.
.	.	.	.	8fJ)	.	8bbJ)	.
=71	=71	=71	=71	=71	=71	=71	=71
4C)	.	1g_	.	(8fL	.	(4bb	.
.	.	.	.	8d	.	.	.
4r	.	.	.	8e	.	8ccc)	.
.	.	.	.	8BJ)	.	8r	.
2r	.	.	.	(8cL	.	8ee	.
.	.	.	.	8G	.	8r	.
.	.	.	.	8c	.	8ee	.
.	.	.	.	8GJ)	.	8r	.
=72	=72	=72	=72	=72	=72	=72	=72
(1GG	.	2.g]	.	(8cL	.	(4.ee	.
.	.	.	.	8G	.	.	.
.	.	.	.	8c	.	.	.
.	.	.	.	8eJ	.	8gg	.
.	.	.	.	8dL	.	8ffL	.
.	.	.	.	8B	.	8dd	.
.	.	(8BL	.	8d	.	8gg	.
.	.	8dJ)	.	8fJ)	.	8bJ)	.
=73	=73	=73	=73	=73	=73	=73	=73
8C)	.	(2f	.	(2b	.	(2dd	.
8r	.	.	.	.	.	.	.
8GG	.	.	.	.	.	.	.
8r	.	.	.	.	.	.	.
8CC	.	8e)	.	8cc)	.	8cc)	.
8r	.	8r	.	8r	.	8r	.
4r	.	4r	.	4r	.	4r	.
==	==	==	==	==	==	==	==
*-	*-	*-	*-	*-	*-	*-	*-
!!!RDF**kern: < = below
